src/assets/duotone/MicrophoneSlash.svg

<svg width="24" height="24" viewBox="0 0 24 24"  xmlns="http://www.w3.org/2000/svg">
<path d="M16.4201 6.41989V7.57989L9.14008 14.8599C8.18008 13.9899 7.58008 12.7099 7.58008 11.3399V6.41989C7.58008 4.35989 8.98008 2.64989 10.8801 2.15989C11.0701 2.10989 11.2501 2.26989 11.2501 2.45989V3.99989C11.2501 4.40989 11.5901 4.74989 12.0001 4.74989C12.4101 4.74989 12.7501 4.40989 12.7501 3.99989V2.45989C12.7501 2.26989 12.9301 2.10989 13.1201 2.15989C15.0201 2.64989 16.4201 4.35989 16.4201 6.41989Z" />
<path opacity="0.4" d="M7.77994 16.2201L6.78994 17.2101C5.19994 15.7801 4.18994 13.7101 4.18994 11.4001V9.81012C4.18994 9.43012 4.49994 9.12012 4.87994 9.12012C5.26994 9.12012 5.57994 9.43012 5.57994 9.81012V11.4001C5.57994 13.3201 6.42994 15.0501 7.77994 16.2201Z" />
<path opacity="0.4" d="M19.8098 9.81012V11.4001C19.8098 15.4701 16.6798 18.8201 12.6998 19.1701V21.3001C12.6998 21.6901 12.3898 22.0001 11.9998 22.0001C11.6098 22.0001 11.2998 21.6901 11.2998 21.3001V19.1701C10.2098 19.0701 9.17977 18.7501 8.25977 18.2401L9.28977 17.2101C10.1098 17.5901 11.0298 17.8101 11.9998 17.8101C15.5398 17.8101 18.4198 14.9301 18.4198 11.4001V9.81012C18.4198 9.43012 18.7298 9.12012 19.1198 9.12012C19.4998 9.12012 19.8098 9.43012 19.8098 9.81012Z" />
<path opacity="0.4" d="M16.4202 10.0801V11.5301C16.4202 14.1101 14.2002 16.1801 11.5602 15.9301C11.2802 15.9001 11.0002 15.8501 10.7402 15.7601L16.4202 10.0801Z" />
<path d="M21.7699 2.22988C21.4699 1.92988 20.9799 1.92988 20.6799 2.22988L2.22988 20.6899C1.92988 20.9899 1.92988 21.4799 2.22988 21.7799C2.37988 21.9199 2.56988 21.9999 2.76988 21.9999C2.96988 21.9999 3.15988 21.9199 3.30988 21.7699L21.7699 3.30988C22.0799 3.00988 22.0799 2.52988 21.7699 2.22988Z" />
</svg>

<?xml version="1.0" encoding="UTF-8"?>
<svg width="24" height="24" viewBox="0 0 24 24" xmlns="http://www.w3.org/2000/svg">
 <path d="m16.42 6.4199v1.16l-7.28 7.28c-0.96-0.87-1.56-2.15-1.56-3.52v-4.92c0-2.06 1.4-3.77 3.3-4.26 0.19-0.05 0.37 0.11 0.37 0.3v1.54c0 0.41 0.34 0.75 0.75 0.75s0.75-0.34 0.75-0.75v-1.54c0-0.19 0.18-0.35 0.37-0.3 1.9 0.49 3.3 2.2 3.3 4.26z"/>
 <path d="m7.7799 16.22-0.99 0.99c-1.59-1.43-2.6-3.5-2.6-5.81v-1.59c0-0.38 0.31-0.69 0.69-0.69 0.39 0 0.7 0.31 0.7 0.69v1.59c0 1.92 0.85 3.65 2.2 4.82z" opacity=".4"/>
 <path d="m19.81 9.8101v1.59c0 4.07-3.13 7.42-7.11 7.77v2.13c0 0.39-0.31 0.7-0.7 0.7s-0.7-0.31-0.7-0.7v-2.13c-1.09-0.1-2.12-0.42-3.04-0.93l1.03-1.03c0.82003 0.38 1.74 0.6 2.71 0.6 3.54 0 6.42-2.88 6.42-6.41v-1.59c0-0.38 0.31-0.69 0.7-0.69 0.38 0 0.69 0.31 0.69 0.69z" opacity=".4"/>
 <path d="m16.42 10.08v1.45c0 2.58-2.22 4.65-4.86 4.4-0.28-0.03-0.56-0.08-0.82-0.17l5.68-5.68z" opacity=".4"/>
 <path d="m21.77 2.2299c-0.3-0.3-0.79-0.3-1.09 0l-18.45 18.46c-0.3 0.3-0.3 0.79 0 1.09 0.15 0.14 0.34 0.22 0.54 0.22s0.39-0.08 0.54-0.23l18.46-18.46c0.31-0.3 0.31-0.78 0-1.08z"/>
</svg>
